;Generated with Makelangelo 7.32.0
;FLAVOR:Marlin-polargraph
;MINX:-199.500
;MINY:-282.128
;MAXX:199.500
;MAXY:282.128
; 2022-09-11 at 04:14:23 IST
;Start of user gcode

;End of user gcode
G28
M280 P0 S90  
M0 Ready black and click
G0 X198.952 Y0.000 F3000.0
M280 P0 S25  
G1 X198.323 Y7.090 F3000.0
G1 X197.456 Y14.176 F3000.0
G1 X196.355 Y21.253 F3000.0
G1 X195.018 Y28.317 F3000.0
G1 X193.449 Y35.363 F3000.0
G1 X191.649 Y42.386 F3000.0
G1 X189.619 Y49.383 F3000.0
G1 X187.364 Y56.348 F3000.0
G1 X184.885 Y63.278 F3000.0
G1 X182.185 Y70.168 F3000.0
G1 X179.267 Y77.013 F3000.0
G1 X176.135 Y83.810 F3000.0
G1 X172.793 Y90.554 F3000.0
G1 X169.245 Y97.241 F3000.0
G1 X165.495 Y103.866 F3000.0
G1 X161.547 Y110.426 F3000.0
G1 X157.406 Y116.916 F3000.0
G1 X153.077 Y123.332 F3000.0
G1 X148.565 Y129.670 F3000.0
G1 X143.876 Y135.927 F3000.0
G1 X139.015 Y142.097 F3000.0
G1 X133.988 Y148.178 F3000.0
G1 X128.801 Y154.165 F3000.0
G1 X123.461 Y160.055 F3000.0
G1 X117.973 Y165.844 F3000.0
G1 X112.344 Y171.528 F3000.0
G1 X106.580 Y177.103 F3000.0
G1 X100.690 Y182.567 F3000.0
G1 X94.679 Y187.915 F3000.0
G1 X88.556 Y193.145 F3000.0
G1 X82.326 Y198.253 F3000.0
G1 X75.998 Y203.235 F3000.0
G1 X69.580 Y208.089 F3000.0
G1 X63.078 Y212.812 F3000.0
G1 X56.502 Y217.400 F3000.0
G1 X49.857 Y221.851 F3000.0
G1 X43.153 Y226.162 F3000.0
G1 X36.398 Y230.330 F3000.0
G1 X29.599 Y234.353 F3000.0
G1 X22.765 Y238.227 F3000.0
G1 X15.903 Y241.951 F3000.0
G1 X9.023 Y245.522 F3000.0
G1 X2.132 Y248.938 F3000.0
G1 X-4.762 Y252.197 F3000.0
G1 X-11.650 Y255.297 F3000.0
G1 X-18.524 Y258.235 F3000.0
G1 X-25.376 Y261.011 F3000.0
G1 X-32.198 Y263.621 F3000.0
G1 X-38.981 Y266.065 F3000.0
G1 X-45.718 Y268.341 F3000.0
G1 X-52.400 Y270.447 F3000.0
G1 X-59.020 Y272.382 F3000.0
G1 X-65.569 Y274.146 F3000.0
G1 X-72.039 Y275.736 F3000.0
G1 X-78.424 Y277.152 F3000.0
G1 X-84.715 Y278.393 F3000.0
G1 X-90.905 Y279.459 F3000.0
G1 X-96.987 Y280.347 F3000.0
G1 X-102.952 Y281.059 F3000.0
G1 X-108.795 Y281.593 F3000.0
G1 X-114.508 Y281.950 F3000.0
G1 X-120.084 Y282.128 F3000.0
G1 X-125.516 Y282.128 F3000.0
G1 X-130.799 Y281.950 F3000.0
G1 X-135.926 Y281.593 F3000.0
G1 X-140.890 Y281.059 F3000.0
G1 X-145.686 Y280.347 F3000.0
G1 X-150.308 Y279.459 F3000.0
G1 X-154.750 Y278.393 F3000.0
G1 X-159.008 Y277.152 F3000.0
G1 X-163.076 Y275.736 F3000.0
G1 X-166.949 Y274.146 F3000.0
G1 X-170.623 Y272.382 F3000.0
G1 X-174.093 Y270.447 F3000.0
G1 X-177.355 Y268.341 F3000.0
G1 X-180.406 Y266.065 F3000.0
G1 X-183.241 Y263.621 F3000.0
G1 X-185.857 Y261.011 F3000.0
G1 X-188.251 Y258.235 F3000.0
G1 X-190.421 Y255.297 F3000.0
G1 X-192.363 Y252.197 F3000.0
G1 X-194.075 Y248.938 F3000.0
G1 X-195.556 Y245.522 F3000.0
G1 X-196.803 Y241.951 F3000.0
G1 X-197.815 Y238.227 F3000.0
G1 X-198.591 Y234.353 F3000.0
G1 X-199.130 Y230.330 F3000.0
G1 X-199.431 Y226.162 F3000.0
G1 X-199.493 Y221.851 F3000.0
G1 X-199.318 Y217.400 F3000.0
G1 X-198.905 Y212.812 F3000.0
G1 X-198.254 Y208.089 F3000.0
G1 X-197.366 Y203.235 F3000.0
G1 X-196.243 Y198.253 F3000.0
G1 X-194.885 Y193.145 F3000.0
G1 X-193.295 Y187.915 F3000.0
G1 X-191.474 Y182.567 F3000.0
G1 X-189.424 Y177.103 F3000.0
G1 X-187.148 Y171.528 F3000.0
G1 X-184.648 Y165.844 F3000.0
G1 X-181.928 Y160.055 F3000.0
G1 X-178.991 Y154.165 F3000.0
G1 X-175.840 Y148.178 F3000.0
G1 X-172.479 Y142.097 F3000.0
G1 X-168.912 Y135.927 F3000.0
G1 X-165.144 Y129.670 F3000.0
G1 X-161.178 Y123.332 F3000.0
G1 X-157.020 Y116.916 F3000.0
G1 X-152.674 Y110.426 F3000.0
G1 X-148.146 Y103.866 F3000.0
G1 X-143.441 Y97.241 F3000.0
G1 X-138.565 Y90.554 F3000.0
G1 X-133.523 Y83.810 F3000.0
G1 X-128.322 Y77.013 F3000.0
G1 X-122.968 Y70.168 F3000.0
G1 X-117.467 Y63.278 F3000.0
G1 X-111.825 Y56.348 F3000.0
G1 X-106.050 Y49.383 F3000.0
G1 X-100.148 Y42.386 F3000.0
G1 X-94.127 Y35.363 F3000.0
G1 X-87.994 Y28.317 F3000.0
G1 X-81.755 Y21.253 F3000.0
G1 X-75.419 Y14.176 F3000.0
G1 X-68.992 Y7.090 F3000.0
G1 X-62.484 Y0.000 F3000.0
G1 X-55.900 Y-7.090 F3000.0
G1 X-49.250 Y-14.176 F3000.0
G1 X-42.541 Y-21.253 F3000.0
G1 X-35.781 Y-28.317 F3000.0
G1 X-28.979 Y-35.363 F3000.0
G1 X-22.142 Y-42.386 F3000.0
G1 X-15.278 Y-49.383 F3000.0
G1 X-8.397 Y-56.348 F3000.0
G1 X-1.505 Y-63.278 F3000.0
G1 X5.389 Y-70.168 F3000.0
G1 X12.276 Y-77.013 F3000.0
G1 X19.148 Y-83.810 F3000.0
G1 X25.998 Y-90.554 F3000.0
G1 X32.816 Y-97.241 F3000.0
G1 X39.596 Y-103.866 F3000.0
G1 X46.328 Y-110.426 F3000.0
G1 X53.005 Y-116.916 F3000.0
G1 X59.618 Y-123.332 F3000.0
G1 X66.160 Y-129.670 F3000.0
G1 X72.624 Y-135.927 F3000.0
G1 X79.000 Y-142.097 F3000.0
G1 X85.282 Y-148.178 F3000.0
G1 X91.463 Y-154.165 F3000.0
G1 X97.534 Y-160.055 F3000.0
G1 X103.489 Y-165.844 F3000.0
G1 X109.320 Y-171.528 F3000.0
G1 X115.020 Y-177.103 F3000.0
G1 X120.584 Y-182.567 F3000.0
G1 X126.003 Y-187.915 F3000.0
G1 X131.272 Y-193.145 F3000.0
G1 X136.384 Y-198.253 F3000.0
G1 X141.333 Y-203.235 F3000.0
G1 X146.113 Y-208.089 F3000.0
G1 X150.719 Y-212.812 F3000.0
G1 X155.145 Y-217.400 F3000.0
G1 X159.386 Y-221.851 F3000.0
G1 X163.436 Y-226.162 F3000.0
G1 X167.292 Y-230.330 F3000.0
G1 X170.947 Y-234.353 F3000.0
G1 X174.398 Y-238.227 F3000.0
G1 X177.641 Y-241.951 F3000.0
G1 X180.672 Y-245.522 F3000.0
G1 X183.488 Y-248.938 F3000.0
G1 X186.084 Y-252.197 F3000.0
G1 X188.458 Y-255.297 F3000.0
G1 X190.607 Y-258.235 F3000.0
G1 X192.528 Y-261.011 F3000.0
G1 X194.219 Y-263.621 F3000.0
G1 X195.679 Y-266.065 F3000.0
G1 X196.905 Y-268.341 F3000.0
G1 X197.895 Y-270.447 F3000.0
G1 X198.650 Y-272.382 F3000.0
G1 X199.167 Y-274.146 F3000.0
G1 X199.446 Y-275.736 F3000.0
G1 X199.487 Y-277.152 F3000.0
G1 X199.290 Y-278.393 F3000.0
G1 X198.855 Y-279.459 F3000.0
G1 X198.183 Y-280.347 F3000.0
G1 X197.274 Y-281.059 F3000.0
G1 X196.129 Y-281.593 F3000.0
G1 X194.750 Y-281.950 F3000.0
G1 X193.139 Y-282.128 F3000.0
G1 X191.297 Y-282.128 F3000.0
G1 X189.226 Y-281.950 F3000.0
G1 X186.930 Y-281.593 F3000.0
G1 X184.410 Y-281.059 F3000.0
G1 X181.670 Y-280.347 F3000.0
G1 X178.713 Y-279.459 F3000.0
G1 X175.543 Y-278.393 F3000.0
G1 X172.163 Y-277.152 F3000.0
G1 X168.578 Y-275.736 F3000.0
G1 X164.791 Y-274.146 F3000.0
G1 X160.808 Y-272.382 F3000.0
G1 X156.632 Y-270.447 F3000.0
G1 X152.270 Y-268.341 F3000.0
G1 X147.726 Y-266.065 F3000.0
G1 X143.005 Y-263.621 F3000.0
G1 X138.113 Y-261.011 F3000.0
G1 X133.057 Y-258.235 F3000.0
G1 X127.842 Y-255.297 F3000.0
G1 X122.474 Y-252.197 F3000.0
G1 X116.959 Y-248.938 F3000.0
G1 X111.305 Y-245.522 F3000.0
G1 X105.519 Y-241.951 F3000.0
G1 X99.606 Y-238.227 F3000.0
G1 X93.574 Y-234.353 F3000.0
G1 X87.431 Y-230.330 F3000.0
G1 X81.183 Y-226.162 F3000.0
G1 X74.838 Y-221.851 F3000.0
G1 X68.404 Y-217.400 F3000.0
G1 X61.888 Y-212.812 F3000.0
G1 X55.298 Y-208.089 F3000.0
G1 X48.642 Y-203.235 F3000.0
G1 X41.929 Y-198.253 F3000.0
G1 X35.165 Y-193.145 F3000.0
G1 X28.359 Y-187.915 F3000.0
G1 X21.519 Y-182.567 F3000.0
G1 X14.653 Y-177.103 F3000.0
G1 X7.770 Y-171.528 F3000.0
G1 X0.878 Y-165.844 F3000.0
G1 X-6.015 Y-160.055 F3000.0
G1 X-12.901 Y-154.165 F3000.0
G1 X-19.772 Y-148.178 F3000.0
G1 X-26.619 Y-142.097 F3000.0
G1 X-33.434 Y-135.927 F3000.0
G1 X-40.210 Y-129.670 F3000.0
G1 X-46.937 Y-123.332 F3000.0
G1 X-53.609 Y-116.916 F3000.0
G1 X-60.216 Y-110.426 F3000.0
G1 X-66.751 Y-103.866 F3000.0
G1 X-73.207 Y-97.241 F3000.0
G1 X-79.575 Y-90.554 F3000.0
G1 X-85.849 Y-83.810 F3000.0
G1 X-92.019 Y-77.013 F3000.0
G1 X-98.080 Y-70.168 F3000.0
G1 X-104.024 Y-63.278 F3000.0
G1 X-109.844 Y-56.348 F3000.0
G1 X-115.532 Y-49.383 F3000.0
G1 X-121.082 Y-42.386 F3000.0
G1 X-126.488 Y-35.363 F3000.0
G1 X-131.743 Y-28.317 F3000.0
G1 X-136.840 Y-21.253 F3000.0
G1 X-141.775 Y-14.176 F3000.0
G1 X-146.539 Y-7.090 F3000.0
G1 X-151.129 Y-0.000 F3000.0
G1 X-155.539 Y7.090 F3000.0
G1 X-159.762 Y14.176 F3000.0
G1 X-163.795 Y21.253 F3000.0
G1 X-167.632 Y28.317 F3000.0
G1 X-171.269 Y35.363 F3000.0
G1 X-174.702 Y42.386 F3000.0
G1 X-177.926 Y49.383 F3000.0
G1 X-180.937 Y56.348 F3000.0
G1 X-183.733 Y63.278 F3000.0
G1 X-186.309 Y70.168 F3000.0
G1 X-188.662 Y77.013 F3000.0
G1 X-190.791 Y83.810 F3000.0
G1 X-192.691 Y90.554 F3000.0
G1 X-194.362 Y97.241 F3000.0
G1 X-195.800 Y103.866 F3000.0
G1 X-197.004 Y110.426 F3000.0
G1 X-197.974 Y116.916 F3000.0
G1 X-198.706 Y123.332 F3000.0
G1 X-199.202 Y129.670 F3000.0
G1 X-199.460 Y135.927 F3000.0
G1 X-199.479 Y142.097 F3000.0
G1 X-199.260 Y148.178 F3000.0
G1 X-198.804 Y154.165 F3000.0
G1 X-198.110 Y160.055 F3000.0
G1 X-197.179 Y165.844 F3000.0
G1 X-196.013 Y171.528 F3000.0
G1 X-194.613 Y177.103 F3000.0
G1 X-192.981 Y182.567 F3000.0
G1 X-191.118 Y187.915 F3000.0
G1 X-189.027 Y193.145 F3000.0
G1 X-186.710 Y198.253 F3000.0
G1 X-184.170 Y203.235 F3000.0
G1 X-181.410 Y208.089 F3000.0
G1 X-178.434 Y212.812 F3000.0
G1 X-175.245 Y217.400 F3000.0
G1 X-171.846 Y221.851 F3000.0
G1 X-168.242 Y226.162 F3000.0
G1 X-164.437 Y230.330 F3000.0
G1 X-160.436 Y234.353 F3000.0
G1 X-156.243 Y238.227 F3000.0
G1 X-151.864 Y241.951 F3000.0
G1 X-147.304 Y245.522 F3000.0
G1 X-142.567 Y248.938 F3000.0
G1 X-137.660 Y252.197 F3000.0
G1 X-132.589 Y255.297 F3000.0
G1 X-127.360 Y258.235 F3000.0
G1 X-121.978 Y261.011 F3000.0
G1 X-116.451 Y263.621 F3000.0
G1 X-110.785 Y266.065 F3000.0
G1 X-104.986 Y268.341 F3000.0
G1 X-99.062 Y270.447 F3000.0
G1 X-93.020 Y272.382 F3000.0
G1 X-86.867 Y274.146 F3000.0
G1 X-80.610 Y275.736 F3000.0
G1 X-74.257 Y277.152 F3000.0
G1 X-67.815 Y278.393 F3000.0
G1 X-61.292 Y279.459 F3000.0
G1 X-54.696 Y280.347 F3000.0
G1 X-48.034 Y281.059 F3000.0
G1 X-41.316 Y281.593 F3000.0
G1 X-34.548 Y281.950 F3000.0
G1 X-27.738 Y282.128 F3000.0
G1 X-20.896 Y282.128 F3000.0
G1 X-14.028 Y281.950 F3000.0
G1 X-7.144 Y281.593 F3000.0
G1 X-0.251 Y281.059 F3000.0
G1 X6.642 Y280.347 F3000.0
G1 X13.527 Y279.459 F3000.0
G1 X20.396 Y278.393 F3000.0
G1 X27.240 Y277.152 F3000.0
G1 X34.052 Y275.736 F3000.0
G1 X40.823 Y274.146 F3000.0
G1 X47.546 Y272.382 F3000.0
G1 X54.212 Y270.447 F3000.0
G1 X60.813 Y268.341 F3000.0
G1 X67.342 Y266.065 F3000.0
G1 X73.790 Y263.621 F3000.0
G1 X80.150 Y261.011 F3000.0
G1 X86.414 Y258.235 F3000.0
G1 X92.575 Y255.297 F3000.0
G1 X98.625 Y252.197 F3000.0
G1 X104.558 Y248.938 F3000.0
G1 X110.366 Y245.522 F3000.0
G1 X116.042 Y241.951 F3000.0
G1 X121.580 Y238.227 F3000.0
G1 X126.972 Y234.353 F3000.0
G1 X132.213 Y230.330 F3000.0
G1 X137.296 Y226.162 F3000.0
G1 X142.215 Y221.851 F3000.0
G1 X146.964 Y217.400 F3000.0
G1 X151.538 Y212.812 F3000.0
G1 X155.930 Y208.089 F3000.0
G1 X160.137 Y203.235 F3000.0
G1 X164.152 Y198.253 F3000.0
G1 X167.971 Y193.145 F3000.0
G1 X171.590 Y187.915 F3000.0
G1 X175.004 Y182.567 F3000.0
G1 X178.208 Y177.103 F3000.0
G1 X181.200 Y171.528 F3000.0
G1 X183.976 Y165.844 F3000.0
G1 X186.532 Y160.055 F3000.0
G1 X188.865 Y154.165 F3000.0
G1 X190.973 Y148.178 F3000.0
G1 X192.853 Y142.097 F3000.0
G1 X194.502 Y135.927 F3000.0
G1 X195.919 Y129.670 F3000.0
G1 X197.102 Y123.332 F3000.0
G1 X198.050 Y116.916 F3000.0
G1 X198.761 Y110.426 F3000.0
G1 X199.235 Y103.866 F3000.0
G1 X199.471 Y97.241 F3000.0
G1 X199.469 Y90.554 F3000.0
G1 X199.229 Y83.810 F3000.0
G1 X198.751 Y77.013 F3000.0
G1 X198.035 Y70.168 F3000.0
G1 X197.083 Y63.278 F3000.0
G1 X195.896 Y56.348 F3000.0
G1 X194.474 Y49.383 F3000.0
G1 X192.821 Y42.386 F3000.0
G1 X190.937 Y35.363 F3000.0
G1 X188.825 Y28.317 F3000.0
G1 X186.488 Y21.253 F3000.0
G1 X183.928 Y14.176 F3000.0
G1 X181.149 Y7.090 F3000.0
G1 X178.153 Y0.000 F3000.0
G1 X174.944 Y-7.090 F3000.0
G1 X171.527 Y-14.176 F3000.0
G1 X167.904 Y-21.253 F3000.0
G1 X164.082 Y-28.317 F3000.0
G1 X160.063 Y-35.363 F3000.0
G1 X155.853 Y-42.386 F3000.0
G1 X151.457 Y-49.383 F3000.0
G1 X146.880 Y-56.348 F3000.0
G1 X142.128 Y-63.278 F3000.0
G1 X137.206 Y-70.168 F3000.0
G1 X132.120 Y-77.013 F3000.0
G1 X126.877 Y-83.810 F3000.0
G1 X121.482 Y-90.554 F3000.0
G1 X115.942 Y-97.241 F3000.0
G1 X110.263 Y-103.866 F3000.0
G1 X104.453 Y-110.426 F3000.0
G1 X98.518 Y-116.916 F3000.0
G1 X92.465 Y-123.332 F3000.0
G1 X86.302 Y-129.670 F3000.0
G1 X80.036 Y-135.927 F3000.0
G1 X73.675 Y-142.097 F3000.0
G1 X67.225 Y-148.178 F3000.0
G1 X60.695 Y-154.165 F3000.0
G1 X54.093 Y-160.055 F3000.0
G1 X47.426 Y-165.844 F3000.0
G1 X40.702 Y-171.528 F3000.0
G1 X33.930 Y-177.103 F3000.0
G1 X27.117 Y-182.567 F3000.0
G1 X20.272 Y-187.915 F3000.0
G1 X13.403 Y-193.145 F3000.0
G1 X6.518 Y-198.253 F3000.0
G1 X-0.375 Y-203.235 F3000.0
G1 X-7.268 Y-208.089 F3000.0
G1 X-14.152 Y-212.812 F3000.0
G1 X-21.019 Y-217.400 F3000.0
G1 X-27.861 Y-221.851 F3000.0
G1 X-34.669 Y-226.162 F3000.0
G1 X-41.437 Y-230.330 F3000.0
G1 X-48.155 Y-234.353 F3000.0
G1 X-54.815 Y-238.227 F3000.0
G1 X-61.410 Y-241.951 F3000.0
G1 X-67.931 Y-245.522 F3000.0
G1 X-74.372 Y-248.938 F3000.0
G1 X-80.723 Y-252.197 F3000.0
G1 X-86.978 Y-255.297 F3000.0
G1 X-93.130 Y-258.235 F3000.0
G1 X-99.170 Y-261.011 F3000.0
G1 X-105.092 Y-263.621 F3000.0
G1 X-110.888 Y-266.065 F3000.0
G1 X-116.552 Y-268.341 F3000.0
G1 X-122.076 Y-270.447 F3000.0
G1 X-127.455 Y-272.382 F3000.0
G1 X-132.682 Y-274.146 F3000.0
G1 X-137.750 Y-275.736 F3000.0
G1 X-142.654 Y-277.152 F3000.0
G1 X-147.387 Y-278.393 F3000.0
G1 X-151.944 Y-279.459 F3000.0
G1 X-156.320 Y-280.347 F3000.0
G1 X-160.510 Y-281.059 F3000.0
G1 X-164.507 Y-281.593 F3000.0
G1 X-168.309 Y-281.950 F3000.0
G1 X-171.909 Y-282.128 F3000.0
G1 X-175.304 Y-282.128 F3000.0
G1 X-178.489 Y-281.950 F3000.0
G1 X-181.462 Y-281.593 F3000.0
G1 X-184.218 Y-281.059 F3000.0
G1 X-186.753 Y-280.347 F3000.0
G1 X-189.066 Y-279.459 F3000.0
G1 X-191.153 Y-278.393 F3000.0
G1 X-193.012 Y-277.152 F3000.0
G1 X-194.640 Y-275.736 F3000.0
G1 X-196.036 Y-274.146 F3000.0
G1 X-197.198 Y-272.382 F3000.0
G1 X-198.124 Y-270.447 F3000.0
G1 X-198.814 Y-268.341 F3000.0
G1 X-199.267 Y-266.065 F3000.0
G1 X-199.481 Y-263.621 F3000.0
G1 X-199.457 Y-261.011 F3000.0
G1 X-199.195 Y-258.235 F3000.0
G1 X-198.695 Y-255.297 F3000.0
G1 X-197.958 Y-252.197 F3000.0
G1 X-196.985 Y-248.938 F3000.0
G1 X-195.776 Y-245.522 F3000.0
G1 X-194.334 Y-241.951 F3000.0
G1 X-192.659 Y-238.227 F3000.0
G1 X-190.754 Y-234.353 F3000.0
G1 X-188.622 Y-230.330 F3000.0
G1 X-186.265 Y-226.162 F3000.0
G1 X-183.685 Y-221.851 F3000.0
G1 X-180.885 Y-217.400 F3000.0
G1 X-177.870 Y-212.812 F3000.0
G1 X-174.642 Y-208.089 F3000.0
G1 X-171.206 Y-203.235 F3000.0
G1 X-167.565 Y-198.253 F3000.0
G1 X-163.724 Y-193.145 F3000.0
G1 X-159.688 Y-187.915 F3000.0
G1 X-155.461 Y-182.567 F3000.0
G1 X-151.048 Y-177.103 F3000.0
G1 X-146.455 Y-171.528 F3000.0
G1 X-141.687 Y-165.844 F3000.0
G1 X-136.750 Y-160.055 F3000.0
G1 X-131.650 Y-154.165 F3000.0
G1 X-126.392 Y-148.178 F3000.0
G1 X-120.984 Y-142.097 F3000.0
G1 X-115.431 Y-135.927 F3000.0
G1 X-109.740 Y-129.670 F3000.0
G1 X-103.918 Y-123.332 F3000.0
G1 X-97.972 Y-116.916 F3000.0
G1 X-91.909 Y-110.426 F3000.0
G1 X-85.737 Y-103.866 F3000.0
G1 X-79.462 Y-97.241 F3000.0
G1 X-73.092 Y-90.554 F3000.0
G1 X-66.635 Y-83.810 F3000.0
G1 X-60.098 Y-77.013 F3000.0
G1 X-53.489 Y-70.168 F3000.0
G1 X-46.817 Y-63.278 F3000.0
G1 X-40.089 Y-56.348 F3000.0
G1 X-33.312 Y-49.383 F3000.0
G1 X-26.496 Y-42.386 F3000.0
G1 X-19.649 Y-35.363 F3000.0
G1 X-12.778 Y-28.317 F3000.0
G1 X-5.891 Y-21.253 F3000.0
G1 X1.002 Y-14.176 F3000.0
G1 X7.894 Y-7.090 F3000.0
G1 X14.777 Y-0.000 F3000.0
G1 X21.642 Y7.090 F3000.0
G1 X28.481 Y14.176 F3000.0
G1 X35.287 Y21.253 F3000.0
G1 X42.050 Y28.317 F3000.0
G1 X48.763 Y35.363 F3000.0
G1 X55.417 Y42.386 F3000.0
G1 X62.006 Y49.383 F3000.0
G1 X68.520 Y56.348 F3000.0
G1 X74.953 Y63.278 F3000.0
G1 X81.296 Y70.168 F3000.0
G1 X87.542 Y77.013 F3000.0
G1 X93.683 Y83.810 F3000.0
G1 X99.713 Y90.554 F3000.0
G1 X105.624 Y97.241 F3000.0
G1 X111.408 Y103.866 F3000.0
G1 X117.060 Y110.426 F3000.0
G1 X122.571 Y116.916 F3000.0
G1 X127.937 Y123.332 F3000.0
G1 X133.149 Y129.670 F3000.0
G1 X138.203 Y135.927 F3000.0
G1 X143.091 Y142.097 F3000.0
G1 X147.809 Y148.178 F3000.0
G1 X152.350 Y154.165 F3000.0
G1 X156.709 Y160.055 F3000.0
G1 X160.881 Y165.844 F3000.0
G1 X164.861 Y171.528 F3000.0
G1 X168.644 Y177.103 F3000.0
G1 X172.226 Y182.567 F3000.0
G1 X175.602 Y187.915 F3000.0
G1 X178.768 Y193.145 F3000.0
G1 X181.721 Y198.253 F3000.0
G1 X184.457 Y203.235 F3000.0
G1 X186.973 Y208.089 F3000.0
G1 X189.265 Y212.812 F3000.0
G1 X191.332 Y217.400 F3000.0
G1 X193.170 Y221.851 F3000.0
