; generated by PrusaSlicer 2.1.0+ on 2020-02-13 at 16:57:01 UTC

; 

; external perimeters extrusion width = 0.45mm
; perimeters extrusion width = 0.45mm
; infill extrusion width = 0.45mm
; solid infill extrusion width = 0.45mm
; top infill extrusion width = 0.40mm
; first layer extrusion width = 0.56mm

M201 X500 Y500 Z500 E10000 ; sets maximum accelerations, mm/sec^2
M203 X500 Y500 Z12 E120 ; sets maximum feedrates, mm/sec
M204 P1500 R1500 T1500 ; sets acceleration (P, T) and retract acceleration (R), mm/sec^2
M205 X10.00 Y10.00 Z0.20 E2.50 ; sets the jerk limits, mm/sec
M205 S0 T0 ; sets the minimum extruding and travel feed rate, mm/sec
M107
G28 Y0 X0 Z0  ;

M140 S50 ; set bed temp

M190 S50 ; wait for bed temp

M104 S205 ; set extruder temp

M109 S205 ; wait for extruder temp

M300 S1000 P500 ; chirp

G92 E0 ; Reset Extruder

G1 Z2.0 F3000 ; Move Z Axis up little to prevent scratching of Heat Bed

G1 X0.1 Y20 Z0.3 F5000.0 ; Move to start position

G1 X0.1 Y200.0 Z0.3 F1500.0 E15 ; Draw the first line

G1 X0.4 Y200.0 Z0.3 F5000.0 ; Move to side a little

G1 X0.4 Y20 Z0.3 F1500.0 E30 ; Draw the second line

G92 E0 ; Reset Extruder

G92 E0.0

G21 ; set units to millimeters
G90 ; use absolute coordinates
M82 ; use absolute distances for extrusion
G92 E0
; Filament gcode
G1 Z0.280 F7800.000
G1 E-6.00000 F1500.00000
G92 E0
G1 X35.293 Y35.293 F7800.000
G1 E6.00000 F1500.00000
G1 F1800
G1 X35.500 Y35.250 E6.01231
G1 X184.500 Y35.250 E14.68489
G1 X184.707 Y35.293 E14.69720
G1 X184.750 Y35.500 E14.70951
G1 X184.750 Y184.500 E23.38209
G1 X184.707 Y184.707 E23.39440
G1 X184.500 Y184.750 E23.40671
G1 X35.500 Y184.750 E32.07929
G1 X35.293 Y184.707 E32.09160
G1 X35.250 Y184.500 E32.10391
G1 X35.250 Y35.500 E40.77649
G1 X35.271 Y35.396 E40.78318
G1 X35.281 Y35.352 E40.78630
G1 E34.78630 F1500.00000
G92 E0
G1 X45.293 Y45.293 F7800.000
G1 E6.00000 F1500.00000
G1 F1800
G1 X45.500 Y45.250 E6.01231
G1 X174.500 Y45.250 E13.52079
G1 X174.707 Y45.293 E13.53310
G1 X174.750 Y45.500 E13.54541
G1 X174.750 Y174.500 E21.05388
G1 X174.707 Y174.707 E21.06619
G1 X174.500 Y174.750 E21.07850
G1 X45.500 Y174.750 E28.58722
G1 X45.293 Y174.707 E28.59953
G1 X45.250 Y174.500 E28.61184
G1 X45.250 Y45.500 E36.12031
G1 X45.271 Y45.396 E36.12700
G1 X45.281 Y45.352 E36.13012
G1 E30.13012 F1500.00000
G92 E0
G1 X55.293 Y55.293 F7800.000
G1 E6.00000 F1500.00000
G1 F1800
G1 X55.500 Y55.250 E6.01231
G1 X164.500 Y55.250 E12.35668
G1 X164.707 Y55.293 E12.36899
G1 X164.750 Y55.500 E12.38130
G1 X164.750 Y164.500 E18.72567
G1 X164.707 Y164.707 E18.73798
G1 X164.500 Y164.750 E18.75029
G1 X55.500 Y164.750 E25.09466
G1 X55.293 Y164.707 E25.10698
G1 X55.250 Y164.500 E25.11929
G1 X55.250 Y55.500 E31.46366
G1 X55.271 Y55.396 E31.47034
G1 X55.281 Y55.352 E31.47346
G1 E25.47346 F1500.00000
G92 E0
G1 X65.293 Y65.293 F7800.000
G1 E6.00000 F1500.00000
G1 F1800
G1 X65.500 Y65.250 E6.01231
G1 X154.500 Y65.250 E11.19258
G1 X154.707 Y65.293 E11.20489
G1 X154.750 Y65.500 E11.21720
G1 X154.750 Y154.500 E16.39755
G1 X154.707 Y154.707 E16.40986
G1 X154.500 Y154.750 E16.42217
G1 X65.500 Y154.750 E21.60252
G1 X65.293 Y154.707 E21.61483
G1 X65.250 Y154.500 E21.62714
G1 X65.250 Y65.500 E26.80740
G1 X65.271 Y65.396 E26.81409
G1 X65.281 Y65.352 E26.81721
G1 E20.81721 F1500.00000
G92 E0
G1 X75.293 Y75.293 F7800.000
G1 E6.00000 F1500.00000
G1 F1800
G1 X75.500 Y75.250 E6.01231
G1 X144.500 Y75.250 E10.02847
G1 X144.707 Y75.293 E10.04078
G1 X144.750 Y75.500 E10.05309
G1 X144.750 Y144.500 E14.06919
G1 X144.707 Y144.707 E14.08150
G1 X144.500 Y144.750 E14.09381
G1 X75.500 Y144.750 E18.10991
G1 X75.293 Y144.707 E18.12222
G1 X75.250 Y144.500 E18.13453
G1 X75.250 Y75.500 E22.15063
G1 X75.271 Y75.396 E22.15731
G1 X75.281 Y75.352 E22.16043
G1 E16.16043 F1500.00000
G92 E0
G1 X85.293 Y85.293 F7800.000
G1 E6.00000 F1500.00000
G1 F1800
G1 X85.500 Y85.250 E6.01231
G1 X134.500 Y85.250 E8.86434
G1 X134.707 Y85.293 E8.87665
G1 X134.750 Y85.500 E8.88897
G1 X134.750 Y134.500 E11.74102
G1 X134.707 Y134.707 E11.75333
G1 X134.500 Y134.750 E11.76564
G1 X85.500 Y134.750 E14.61770
G1 X85.293 Y134.707 E14.63001
G1 X85.250 Y134.500 E14.64232
G1 X85.250 Y85.500 E17.49438
G1 X85.271 Y85.396 E17.50106
G1 X85.281 Y85.352 E17.50418
G1 E11.50418 F1500.00000
G92 E0
G1 X95.293 Y95.293 F7800.000
G1 E6.00000 F1500.00000
G1 F1800
G1 X95.500 Y95.250 E6.01231
G1 X124.500 Y95.250 E7.70026
G1 X124.707 Y95.293 E7.71257
G1 X124.750 Y95.500 E7.72488
G1 X124.750 Y124.500 E9.41283
G1 X124.707 Y124.707 E9.42515
G1 X124.500 Y124.750 E9.43746
G1 X95.500 Y124.750 E11.12541
G1 X95.293 Y124.707 E11.13772
G1 X95.250 Y124.500 E11.15003
G1 X95.250 Y95.500 E12.83798
G1 X95.271 Y95.396 E12.84466
G1 X95.281 Y95.352 E12.84778
G1 Z0.560 F7800.000
G1 E6.84778 F1500.00000
G92 E0
G1 X35.293 Y35.293 F7800.000
G1 E6.00000 F1500.00000
G1 F1800
G1 X35.500 Y35.250 E6.01231
G1 X184.500 Y35.250 E14.68489
G1 X184.707 Y35.293 E14.69720
G1 X184.750 Y35.500 E14.70951
G1 X184.750 Y184.500 E23.38209
G1 X184.707 Y184.707 E23.39440
G1 X184.500 Y184.750 E23.40671
G1 X35.500 Y184.750 E32.07929
G1 X35.293 Y184.707 E32.09160
G1 X35.250 Y184.500 E32.10391
G1 X35.250 Y35.500 E40.77649
G1 X35.271 Y35.396 E40.78318
G1 X35.281 Y35.352 E40.78630
G1 E34.78630 F1500.00000
G92 E0
G1 X45.293 Y45.293 F7800.000
G1 E6.00000 F1500.00000
G1 F1800
G1 X45.500 Y45.250 E6.01231
G1 X174.500 Y45.250 E13.52079
G1 X174.707 Y45.293 E13.53310
G1 X174.750 Y45.500 E13.54541
G1 X174.750 Y174.500 E21.05388
G1 X174.707 Y174.707 E21.06619
G1 X174.500 Y174.750 E21.07850
G1 X45.500 Y174.750 E28.58722
G1 X45.293 Y174.707 E28.59953
G1 X45.250 Y174.500 E28.61184
G1 X45.250 Y45.500 E36.12031
G1 X45.271 Y45.396 E36.12700
G1 X45.281 Y45.352 E36.13012
G1 E30.13012 F1500.00000
G92 E0
G1 X55.293 Y55.293 F7800.000
G1 E6.00000 F1500.00000
G1 F1800
G1 X55.500 Y55.250 E6.01231
G1 X164.500 Y55.250 E12.35668
G1 X164.707 Y55.293 E12.36899
G1 X164.750 Y55.500 E12.38130
G1 X164.750 Y164.500 E18.72567
G1 X164.707 Y164.707 E18.73798
G1 X164.500 Y164.750 E18.75029
G1 X55.500 Y164.750 E25.09466
G1 X55.293 Y164.707 E25.10698
G1 X55.250 Y164.500 E25.11929
G1 X55.250 Y55.500 E31.46366
G1 X55.271 Y55.396 E31.47034
G1 X55.281 Y55.352 E31.47346
G1 E25.47346 F1500.00000
G92 E0
G1 X65.293 Y65.293 F7800.000
G1 E6.00000 F1500.00000
G1 F1800
G1 X65.500 Y65.250 E6.01231
G1 X154.500 Y65.250 E11.19258
G1 X154.707 Y65.293 E11.20489
G1 X154.750 Y65.500 E11.21720
G1 X154.750 Y154.500 E16.39755
G1 X154.707 Y154.707 E16.40986
G1 X154.500 Y154.750 E16.42217
G1 X65.500 Y154.750 E21.60252
G1 X65.293 Y154.707 E21.61483
G1 X65.250 Y154.500 E21.62714
G1 X65.250 Y65.500 E26.80740
G1 X65.271 Y65.396 E26.81409
G1 X65.281 Y65.352 E26.81721
G1 E20.81721 F1500.00000
G92 E0
G1 X75.293 Y75.293 F7800.000
G1 E6.00000 F1500.00000
G1 F1800
G1 X75.500 Y75.250 E6.01231
G1 X144.500 Y75.250 E10.02847
G1 X144.707 Y75.293 E10.04078
G1 X144.750 Y75.500 E10.05309
G1 X144.750 Y144.500 E14.06919
G1 X144.707 Y144.707 E14.08150
G1 X144.500 Y144.750 E14.09381
G1 X75.500 Y144.750 E18.10991
G1 X75.293 Y144.707 E18.12222
G1 X75.250 Y144.500 E18.13453
G1 X75.250 Y75.500 E22.15063
G1 X75.271 Y75.396 E22.15731
G1 X75.281 Y75.352 E22.16043
G1 E16.16043 F1500.00000
G92 E0
G1 X85.293 Y85.293 F7800.000
G1 E6.00000 F1500.00000
G1 F1800
G1 X85.500 Y85.250 E6.01231
G1 X134.500 Y85.250 E8.86434
G1 X134.707 Y85.293 E8.87665
G1 X134.750 Y85.500 E8.88897
G1 X134.750 Y134.500 E11.74102
G1 X134.707 Y134.707 E11.75333
G1 X134.500 Y134.750 E11.76564
G1 X85.500 Y134.750 E14.61770
G1 X85.293 Y134.707 E14.63001
G1 X85.250 Y134.500 E14.64232
G1 X85.250 Y85.500 E17.49438
G1 X85.271 Y85.396 E17.50106
G1 X85.281 Y85.352 E17.50418
G1 E11.50418 F1500.00000
G92 E0
G1 X95.293 Y95.293 F7800.000
G1 E6.00000 F1500.00000
G1 F1800
G1 X95.500 Y95.250 E6.01231
G1 X124.500 Y95.250 E7.70026
G1 X124.707 Y95.293 E7.71257
G1 X124.750 Y95.500 E7.72488
G1 X124.750 Y124.500 E9.41283
G1 X124.707 Y124.707 E9.42515
G1 X124.500 Y124.750 E9.43746
G1 X95.500 Y124.750 E11.12541
G1 X95.293 Y124.707 E11.13772
G1 X95.250 Y124.500 E11.15003
G1 X95.250 Y95.500 E12.83798
G1 X95.271 Y95.396 E12.84466
G1 X95.281 Y95.352 E12.84778
G1 Z0.840 F7800.000
G1 E6.84778 F1500.00000
G92 E0
G1 X35.293 Y35.293 F7800.000
G1 E6.00000 F1500.00000
G1 F1800
G1 X35.500 Y35.250 E6.01231
G1 X184.500 Y35.250 E14.68489
G1 X184.707 Y35.293 E14.69720
G1 X184.750 Y35.500 E14.70951
G1 X184.750 Y184.500 E23.38209
G1 X184.707 Y184.707 E23.39440
G1 X184.500 Y184.750 E23.40671
G1 X35.500 Y184.750 E32.07929
G1 X35.293 Y184.707 E32.09160
G1 X35.250 Y184.500 E32.10391
G1 X35.250 Y35.500 E40.77649
G1 X35.271 Y35.396 E40.78318
G1 X35.281 Y35.352 E40.78630
G1 E34.78630 F1500.00000
G92 E0
G1 X45.293 Y45.293 F7800.000
G1 E6.00000 F1500.00000
G1 F1800
G1 X45.500 Y45.250 E6.01231
G1 X174.500 Y45.250 E13.52079
G1 X174.707 Y45.293 E13.53310
G1 X174.750 Y45.500 E13.54541
G1 X174.750 Y174.500 E21.05388
G1 X174.707 Y174.707 E21.06619
G1 X174.500 Y174.750 E21.07850
G1 X45.500 Y174.750 E28.58722
G1 X45.293 Y174.707 E28.59953
G1 X45.250 Y174.500 E28.61184
G1 X45.250 Y45.500 E36.12031
G1 X45.271 Y45.396 E36.12700
G1 X45.281 Y45.352 E36.13012
G1 E30.13012 F1500.00000
G92 E0
G1 X55.293 Y55.293 F7800.000
G1 E6.00000 F1500.00000
G1 F1800
G1 X55.500 Y55.250 E6.01231
G1 X164.500 Y55.250 E12.35668
G1 X164.707 Y55.293 E12.36899
G1 X164.750 Y55.500 E12.38130
G1 X164.750 Y164.500 E18.72567
G1 X164.707 Y164.707 E18.73798
G1 X164.500 Y164.750 E18.75029
G1 X55.500 Y164.750 E25.09466
G1 X55.293 Y164.707 E25.10698
G1 X55.250 Y164.500 E25.11929
G1 X55.250 Y55.500 E31.46366
G1 X55.271 Y55.396 E31.47034
G1 X55.281 Y55.352 E31.47346
G1 E25.47346 F1500.00000
G92 E0
G1 X65.293 Y65.293 F7800.000
G1 E6.00000 F1500.00000
G1 F1800
G1 X65.500 Y65.250 E6.01231
G1 X154.500 Y65.250 E11.19258
G1 X154.707 Y65.293 E11.20489
G1 X154.750 Y65.500 E11.21720
G1 X154.750 Y154.500 E16.39755
G1 X154.707 Y154.707 E16.40986
G1 X154.500 Y154.750 E16.42217
G1 X65.500 Y154.750 E21.60252
G1 X65.293 Y154.707 E21.61483
G1 X65.250 Y154.500 E21.62714
G1 X65.250 Y65.500 E26.80740
G1 X65.271 Y65.396 E26.81409
G1 X65.281 Y65.352 E26.81721
G1 E20.81721 F1500.00000
G92 E0
G1 X75.293 Y75.293 F7800.000
G1 E6.00000 F1500.00000
G1 F1800
G1 X75.500 Y75.250 E6.01231
G1 X144.500 Y75.250 E10.02847
G1 X144.707 Y75.293 E10.04078
G1 X144.750 Y75.500 E10.05309
G1 X144.750 Y144.500 E14.06919
G1 X144.707 Y144.707 E14.08150
G1 X144.500 Y144.750 E14.09381
G1 X75.500 Y144.750 E18.10991
G1 X75.293 Y144.707 E18.12222
G1 X75.250 Y144.500 E18.13453
G1 X75.250 Y75.500 E22.15063
G1 X75.271 Y75.396 E22.15731
G1 X75.281 Y75.352 E22.16043
G1 E16.16043 F1500.00000
G92 E0
G1 X85.293 Y85.293 F7800.000
G1 E6.00000 F1500.00000
G1 F1800
G1 X85.500 Y85.250 E6.01231
G1 X134.500 Y85.250 E8.86434
G1 X134.707 Y85.293 E8.87665
G1 X134.750 Y85.500 E8.88897
G1 X134.750 Y134.500 E11.74102
G1 X134.707 Y134.707 E11.75333
G1 X134.500 Y134.750 E11.76564
G1 X85.500 Y134.750 E14.61770
G1 X85.293 Y134.707 E14.63001
G1 X85.250 Y134.500 E14.64232
G1 X85.250 Y85.500 E17.49438
G1 X85.271 Y85.396 E17.50106
G1 X85.281 Y85.352 E17.50418
G1 E11.50418 F1500.00000
G92 E0
G1 X95.293 Y95.293 F7800.000
G1 E6.00000 F1500.00000
G1 F1800
G1 X95.500 Y95.250 E6.01231
G1 X124.500 Y95.250 E7.70026
G1 X124.707 Y95.293 E7.71257
G1 X124.750 Y95.500 E7.72488
G1 X124.750 Y124.500 E9.41283
G1 X124.707 Y124.707 E9.42515
G1 X124.500 Y124.750 E9.43746
G1 X95.500 Y124.750 E11.12541
G1 X95.293 Y124.707 E11.13772
G1 X95.250 Y124.500 E11.15003
G1 X95.250 Y95.500 E12.83798
G1 X95.271 Y95.396 E12.84466
G1 X95.281 Y95.352 E12.84778
G1 Z1.120 F7800.000
G1 E6.84778 F1500.00000
G92 E0
G1 X35.293 Y35.293 F7800.000
G1 E6.00000 F1500.00000
G1 F1800
G1 X35.500 Y35.250 E6.01231
G1 X184.500 Y35.250 E14.68489
G1 X184.707 Y35.293 E14.69720
G1 X184.750 Y35.500 E14.70951
G1 X184.750 Y184.500 E23.38209
G1 X184.707 Y184.707 E23.39440
G1 X184.500 Y184.750 E23.40671
G1 X35.500 Y184.750 E32.07929
G1 X35.293 Y184.707 E32.09160
G1 X35.250 Y184.500 E32.10391
G1 X35.250 Y35.500 E40.77649
G1 X35.271 Y35.396 E40.78318
G1 X35.281 Y35.352 E40.78630
G1 E34.78630 F1500.00000
G92 E0
G1 X45.293 Y45.293 F7800.000
G1 E6.00000 F1500.00000
G1 F1800
G1 X45.500 Y45.250 E6.01231
G1 X174.500 Y45.250 E13.52079
G1 X174.707 Y45.293 E13.53310
G1 X174.750 Y45.500 E13.54541
G1 X174.750 Y174.500 E21.05388
G1 X174.707 Y174.707 E21.06619
G1 X174.500 Y174.750 E21.07850
G1 X45.500 Y174.750 E28.58722
G1 X45.293 Y174.707 E28.59953
G1 X45.250 Y174.500 E28.61184
G1 X45.250 Y45.500 E36.12031
G1 X45.271 Y45.396 E36.12700
G1 X45.281 Y45.352 E36.13012
G1 E30.13012 F1500.00000
G92 E0
G1 X55.293 Y55.293 F7800.000
G1 E6.00000 F1500.00000
G1 F1800
G1 X55.500 Y55.250 E6.01231
G1 X164.500 Y55.250 E12.35668
G1 X164.707 Y55.293 E12.36899
G1 X164.750 Y55.500 E12.38130
G1 X164.750 Y164.500 E18.72567
G1 X164.707 Y164.707 E18.73798
G1 X164.500 Y164.750 E18.75029
G1 X55.500 Y164.750 E25.09466
G1 X55.293 Y164.707 E25.10698
G1 X55.250 Y164.500 E25.11929
G1 X55.250 Y55.500 E31.46366
G1 X55.271 Y55.396 E31.47034
G1 X55.281 Y55.352 E31.47346
G1 E25.47346 F1500.00000
G92 E0
G1 X65.293 Y65.293 F7800.000
G1 E6.00000 F1500.00000
G1 F1800
G1 X65.500 Y65.250 E6.01231
G1 X154.500 Y65.250 E11.19258
G1 X154.707 Y65.293 E11.20489
G1 X154.750 Y65.500 E11.21720
G1 X154.750 Y154.500 E16.39755
G1 X154.707 Y154.707 E16.40986
G1 X154.500 Y154.750 E16.42217
G1 X65.500 Y154.750 E21.60252
G1 X65.293 Y154.707 E21.61483
G1 X65.250 Y154.500 E21.62714
G1 X65.250 Y65.500 E26.80740
G1 X65.271 Y65.396 E26.81409
G1 X65.281 Y65.352 E26.81721
G1 E20.81721 F1500.00000
G92 E0
G1 X75.293 Y75.293 F7800.000
G1 E6.00000 F1500.00000
G1 F1800
G1 X75.500 Y75.250 E6.01231
G1 X144.500 Y75.250 E10.02847
G1 X144.707 Y75.293 E10.04078
G1 X144.750 Y75.500 E10.05309
G1 X144.750 Y144.500 E14.06919
G1 X144.707 Y144.707 E14.08150
G1 X144.500 Y144.750 E14.09381
G1 X75.500 Y144.750 E18.10991
G1 X75.293 Y144.707 E18.12222
G1 X75.250 Y144.500 E18.13453
G1 X75.250 Y75.500 E22.15063
G1 X75.271 Y75.396 E22.15731
G1 X75.281 Y75.352 E22.16043
G1 E16.16043 F1500.00000
G92 E0
G1 X85.293 Y85.293 F7800.000
G1 E6.00000 F1500.00000
G1 F1800
G1 X85.500 Y85.250 E6.01231
G1 X134.500 Y85.250 E8.86434
G1 X134.707 Y85.293 E8.87665
G1 X134.750 Y85.500 E8.88897
G1 X134.750 Y134.500 E11.74102
G1 X134.707 Y134.707 E11.75333
G1 X134.500 Y134.750 E11.76564
G1 X85.500 Y134.750 E14.61770
G1 X85.293 Y134.707 E14.63001
G1 X85.250 Y134.500 E14.64232
G1 X85.250 Y85.500 E17.49438
G1 X85.271 Y85.396 E17.50106
G1 X85.281 Y85.352 E17.50418
G1 E11.50418 F1500.00000
G92 E0
G1 X95.293 Y95.293 F7800.000
G1 E6.00000 F1500.00000
G1 F1800
G1 X95.500 Y95.250 E6.01231
G1 X124.500 Y95.250 E7.70026
G1 X124.707 Y95.293 E7.71257
G1 X124.750 Y95.500 E7.72488
G1 X124.750 Y124.500 E9.41283
G1 X124.707 Y124.707 E9.42515
G1 X124.500 Y124.750 E9.43746
G1 X95.500 Y124.750 E11.12541
G1 X95.293 Y124.707 E11.13772
G1 X95.250 Y124.500 E11.15003
G1 X95.250 Y95.500 E12.83798
G1 X95.271 Y95.396 E12.84466
G1 X95.281 Y95.352 E12.84778
G1 Z1.400 F7800.000
G1 E6.84778 F1500.00000
G92 E0
G1 X35.293 Y35.293 F7800.000
G1 E6.00000 F1500.00000
G1 F1800
G1 X35.500 Y35.250 E6.01231
G1 X184.500 Y35.250 E14.68489
G1 X184.707 Y35.293 E14.69720
G1 X184.750 Y35.500 E14.70951
G1 X184.750 Y184.500 E23.38209
G1 X184.707 Y184.707 E23.39440
G1 X184.500 Y184.750 E23.40671
G1 X35.500 Y184.750 E32.07929
G1 X35.293 Y184.707 E32.09160
G1 X35.250 Y184.500 E32.10391
G1 X35.250 Y35.500 E40.77649
G1 X35.271 Y35.396 E40.78318
G1 X35.281 Y35.352 E40.78630
G1 E34.78630 F1500.00000
G92 E0
G1 X45.293 Y45.293 F7800.000
G1 E6.00000 F1500.00000
G1 F1800
G1 X45.500 Y45.250 E6.01231
G1 X174.500 Y45.250 E13.52079
G1 X174.707 Y45.293 E13.53310
G1 X174.750 Y45.500 E13.54541
G1 X174.750 Y174.500 E21.05388
G1 X174.707 Y174.707 E21.06619
G1 X174.500 Y174.750 E21.07850
G1 X45.500 Y174.750 E28.58722
G1 X45.293 Y174.707 E28.59953
G1 X45.250 Y174.500 E28.61184
G1 X45.250 Y45.500 E36.12031
G1 X45.271 Y45.396 E36.12700
G1 X45.281 Y45.352 E36.13012
G1 E30.13012 F1500.00000
G92 E0
G1 X55.293 Y55.293 F7800.000
G1 E6.00000 F1500.00000
G1 F1800
G1 X55.500 Y55.250 E6.01231
G1 X164.500 Y55.250 E12.35668
G1 X164.707 Y55.293 E12.36899
